modules/open-iconic/icons/yen.svg

<svg xmlns="http://www.w3.org/2000/svg" width="8" height="8" viewBox="0 0 8 8">
  <path d="M0 0l2.25 3h-2.25v1h3v1h-3v1h3v2h1v-2h3v-1h-3v-1h3v-1h-2.25l2.25-3h-1l-2.31 3h-.38l-2.31-3h-1z" />
</svg>

<svg xmlns="http://www.w3.org/2000/svg" width="8" height="8" viewBox="0 0 8 8"><path d="M0 0l2.25 3H0v1h3v1H0v1h3v2h1V6h3V5H4V4h3V3H4.75L7 0H6L3.69 3h-.38L1 0H0z"/></svg>
